src/assets/zoom_in.svg

<svg xmlns="http://www.w3.org/2000/svg" viewBox="-4-4 40 40"><path d="m12 0a1 1 0 000 24 1 1 0 000-24m0 20.5a1 1 0 010-17 1 1 0 010 17m-1-13h2v3.5h3.5v2h-3.5v3.5h-2v-3.5h-3.5v-2h3.5zm8.5 13.3 1 1v1.4l9 8.8 2.5-2.5-8.8-9h-1.4l-1-1"/></svg>

<svg xmlns="http://www.w3.org/2000/svg" viewBox="-6 -6 44 44">
<path d="M12 0A1 1 0 0012 24A1 1 0 0012 0M12 20.5A1 1 0 0112 3.5A1 1 0 0112 20.5M11 7.5L13 7.5L13 11L16.5 11L16.5 13L13 13L13 16.5L11 16.5L11 13L7.5 13L7.5 11L11 11ZM19.8 21.1L20.5 21.8L20.5 23.2L29.5 32L32 29.5L23.2 20.5L21.8 20.5L21.1 19.8Z" />
</svg>
